icons/pocketbase-light.svg

<svg width="256" height="256" viewBox="0 0 256 256" fill="none" xmlns="http://www.w3.org/2000/svg">
<g clip-path="url(#clip0_120_2369)">
<path d="M196 0H60C26.8629 0 0 26.8629 0 60V196C0 229.137 26.8629 256 60 256H196C229.137 256 256 229.137 256 196V60C256 26.8629 229.137 0 196 0Z" fill="#F4F2ED"/>
<path d="M151.72 100.002L156.935 105.396L104.29 156.273L99.0776 150.879L151.72 100.002Z" fill="white"/>
<path d="M153.749 102.251H201C203.9 102.251 206.249 104.601 206.249 107.501V202C206.249 204.9 203.9 207.249 201 207.249H106.501C103.601 207.249 101.251 204.9 101.251 202V154.749" fill="white"/>
<path d="M153.749 102.251H201C203.9 102.251 206.249 104.601 206.249 107.501V202C206.249 204.9 203.9 207.249 201 207.249H106.501C103.601 207.249 101.251 204.9 101.251 202V154.749" stroke="#16161A" stroke-width="12.8" stroke-linecap="round" stroke-linejoin="round"/>
<path d="M153.749 102.251V55.0003C153.749 52.1003 151.399 49.7505 148.499 49.7505H54.0003C51.1003 49.7505 48.7505 52.1003 48.7505 55.0003V149.499C48.7505 152.399 51.1003 154.749 54.0003 154.749H101.251" fill="white"/>
<path d="M153.749 102.251V55.0003C153.749 52.1003 151.399 49.7505 148.499 49.7505H54.0003C51.1003 49.7505 48.7505 52.1003 48.7505 55.0003V149.499C48.7505 152.399 51.1003 154.749 54.0003 154.749H101.251" stroke="#16161A" stroke-width="12.8" stroke-linecap="round" stroke-linejoin="round"/>
<path d="M83.7499 128.5C81.3333 128.5 79.376 126.54 79.376 124.126V75.9994C79.376 73.5828 81.3333 71.6255 83.7499 71.6255H100.17C103.35 71.6255 106.322 71.9459 109.08 72.5841C111.903 73.1662 114.333 74.1836 116.373 75.6389C118.474 77.0328 120.125 78.9234 121.324 81.308C122.525 83.6338 123.126 86.5123 123.126 89.9437C123.126 93.2575 122.496 96.1361 121.235 98.5794C120.034 101.023 118.384 103.028 116.282 104.598C114.183 106.168 111.753 107.333 108.992 108.088C106.231 108.844 103.291 109.223 100.17 109.223H96.9839C94.5672 109.223 92.6073 111.18 92.6073 113.597V124.126C92.6073 126.54 90.6499 128.5 88.2333 128.5H83.7499ZM92.6073 94.6407C92.6073 97.0573 94.5672 99.0146 96.9839 99.0146H99.3604C106.562 99.0146 110.162 95.9919 110.162 89.9437C110.162 86.977 109.232 84.8835 107.371 83.6631C105.572 82.4428 102.901 81.8313 99.3604 81.8313H96.9839C94.5672 81.8313 92.6073 83.7887 92.6073 86.2053V94.6407Z" fill="#16161A"/>
<path d="M136.251 185.374C133.834 185.374 131.874 183.417 131.874 181.001V132.874C131.874 130.46 133.834 128.5 136.251 128.5H151.509C154.558 128.5 157.367 128.732 159.936 129.197C162.566 129.605 164.836 130.361 166.751 131.467C168.663 132.572 170.155 134.025 171.231 135.827C172.369 137.63 172.935 139.899 172.935 142.631C172.935 143.91 172.727 145.189 172.308 146.471C171.95 147.75 171.352 148.941 170.516 150.047C169.677 151.152 168.633 152.14 167.378 153.013C166.163 153.857 164.724 154.482 163.06 154.89C162.964 154.914 162.895 155.003 162.895 155.101C162.895 155.206 162.97 155.294 163.071 155.312C167.167 156.076 170.275 157.521 172.398 159.641C174.551 161.793 175.624 164.789 175.624 168.626C175.624 171.534 175.058 174.034 173.923 176.127C172.786 178.221 171.202 179.967 169.17 181.361C167.138 182.699 164.748 183.719 161.998 184.416C159.309 185.054 156.379 185.374 153.212 185.374H136.251ZM145.055 146.978C145.055 149.395 147.012 151.355 149.428 151.355H150.881C154.11 151.355 156.441 150.743 157.875 149.523C159.309 148.303 160.027 146.586 160.027 144.375C160.027 142.281 159.279 140.799 157.784 139.929C156.35 138.997 154.077 138.532 150.972 138.532H149.428C147.012 138.532 145.055 140.49 145.055 142.906V146.978ZM145.055 170.968C145.055 173.385 147.012 175.345 149.428 175.345H152.136C159.188 175.345 162.716 172.784 162.716 167.668C162.716 165.166 161.848 163.363 160.115 162.258C158.441 161.155 155.781 160.602 152.136 160.602H149.428C147.012 160.602 145.055 162.56 145.055 164.976V170.968Z" fill="#16161A"/>
</g>
<defs>
<clipPath id="clip0_120_2369">
<rect width="256" height="256" fill="white"/>
</clipPath>
</defs>
</svg>

<svg xmlns="http://www.w3.org/2000/svg" width="256" height="256" fill="none"><g clip-path="url(#clip0_120_2369)"><path fill="#F4F2ED" d="M196 0H60C26.863 0 0 26.863 0 60v136c0 33.137 26.863 60 60 60h136c33.137 0 60-26.863 60-60V60c0-33.137-26.863-60-60-60"/><path fill="#fff" d="m151.72 100.002 5.215 5.394-52.645 50.877-5.212-5.394z"/><path fill="#fff" d="M153.749 102.251H201c2.9 0 5.249 2.35 5.249 5.25V202c0 2.9-2.349 5.249-5.249 5.249h-94.499c-2.9 0-5.25-2.349-5.25-5.249v-47.251"/><path stroke="#16161A" stroke-linecap="round" stroke-linejoin="round" stroke-width="12.8" d="M153.749 102.251H201c2.9 0 5.249 2.35 5.249 5.25V202c0 2.9-2.349 5.249-5.249 5.249h-94.499c-2.9 0-5.25-2.349-5.25-5.249v-47.251"/><path fill="#fff" d="M153.749 102.251v-47.25c0-2.9-2.35-5.25-5.25-5.25H54a5.25 5.25 0 0 0-5.25 5.25v94.498c0 2.9 2.35 5.25 5.25 5.25h47.251"/><path stroke="#16161A" stroke-linecap="round" stroke-linejoin="round" stroke-width="12.8" d="M153.749 102.251v-47.25c0-2.9-2.35-5.25-5.25-5.25H54a5.25 5.25 0 0 0-5.25 5.25v94.498c0 2.9 2.35 5.25 5.25 5.25h47.251"/><path fill="#16161A" d="M83.75 128.5a4.374 4.374 0 0 1-4.374-4.374V75.999a4.373 4.373 0 0 1 4.374-4.373h16.42q4.772 0 8.91.958 4.234.873 7.293 3.055 3.152 2.091 4.951 5.669 1.802 3.488 1.802 8.636 0 4.97-1.891 8.635-1.8 3.665-4.953 6.019-3.148 2.356-7.29 3.49t-8.822 1.135h-3.186a4.375 4.375 0 0 0-4.377 4.374v10.529a4.375 4.375 0 0 1-4.374 4.374zm8.857-33.86a4.375 4.375 0 0 0 4.377 4.375h2.376q10.802 0 10.802-9.071 0-4.45-2.791-6.28-2.7-1.832-8.01-1.833h-2.377a4.375 4.375 0 0 0-4.377 4.374zm43.644 90.734a4.375 4.375 0 0 1-4.377-4.373v-48.127a4.377 4.377 0 0 1 4.377-4.374h15.258q4.573 0 8.427.697 3.944.611 6.815 2.27 2.867 1.657 4.48 4.36 1.706 2.705 1.704 6.804 0 1.918-.627 3.84a10.7 10.7 0 0 1-1.792 3.576q-1.257 1.657-3.138 2.966-1.822 1.266-4.318 1.877a.22.22 0 0 0-.165.211c0 .105.075.193.176.211q6.143 1.148 9.327 4.329 3.228 3.229 3.226 8.985 0 4.362-1.701 7.501-1.705 3.142-4.753 5.234-3.048 2.008-7.172 3.055-4.034.957-8.786.958zm8.804-38.396a4.375 4.375 0 0 0 4.373 4.377h1.453q4.843-.001 6.994-1.832 2.151-1.83 2.152-5.148 0-3.141-2.243-4.446-2.153-1.398-6.812-1.397h-1.544a4.373 4.373 0 0 0-4.373 4.374zm0 23.99a4.375 4.375 0 0 0 4.373 4.377h2.708q10.579-.002 10.58-7.677 0-3.753-2.601-5.41-2.511-1.655-7.979-1.656h-2.708a4.373 4.373 0 0 0-4.373 4.374z"/></g><defs><clipPath id="clip0_120_2369"><path fill="#fff" d="M0 0h256v256H0z"/></clipPath></defs></svg>
